src/images/media-kit/logos/mono-text-light.svg

<svg xmlns="http://www.w3.org/2000/svg" fill="none" viewBox="0 0 1153 394"><g fill="#fff" clip-path="url(#a)"><path d="M588.484 190.769c.784.868 1.836 1.426 2.991 1.612 14.565 4.485 25.478 16.658 28.366 31.643 3.549 15.46 1.238 29.907-9.262 42.39-4.766 5.519-10.687 9.901-17.371 12.815-10.211 4.733-21.331 7.213-32.595 7.275-29.335.227-58.671 0-88.006 0-.826 0-1.63-.103-2.394-.165-.99-3.597-1.237-173.428-.288-179.318 1.547-.517 3.177-.662 4.786-.414h79.61c14.09-.351 28.015 3.038 40.373 9.838 25.87 14.861 24.921 44.933 12.997 60.31-3.92 5.147-9.036 9.239-14.916 11.926l-4.291 2.088Zm-73.421 58.573c.515.228 1.072.373 1.629.455h36.185c23.25-.723 23.663-35.88.433-36.955h-34.348c-1.279 0-2.662-.351-3.837.765l-.062 35.735Zm0-71.491c.784.165 1.568.269 2.352.331h32.141c2.145-.042 4.27-.352 6.333-.889 8.314-1.654 14.028-9.363 13.203-17.816-.412-8.474-5.673-14.075-14.564-15.46-1.63-.248-3.281-.352-4.931-.331h-31.13c-1.094 0-2.332-.351-3.404.868v33.297Zm536.417-28.047c9.26 26.29 18.46 52.477 27.64 78.54.52 1.446 2.11 2.211 3.55 1.715h.04c.79-.269 1.43-.909 1.7-1.695 4.58-12.049 8.12-24.306 12-36.459 4.46-13.971 8.81-27.964 13.25-42.08.33-1.199 1.42-2.046 2.68-2.067h37.9c1.52 0 2.76 1.24 2.76 2.769v.042c0 .372-.06.723-.21 1.054-18.27 48.88-36.55 97.761-54.85 146.6-2.54 7.007-6 13.621-10.32 19.697-8.02 11.388-20.63 18.664-34.49 19.904-15.59 1.736-30.22-1.054-43.22-10.438l-2.78-2.067-1.94-1.467 16.87-29.246c.79-1.343 2.5-1.798 3.84-1.013l.39.269c.48.393.91.827 1.38 1.158 3.47 2.562 7.58 4.133 11.87 4.547 6.72.826 13.26-2.543 16.5-8.495.25-.413.43-.868.66-1.282 2.37-4.381 2.6-9.59.64-14.157-16.22-39.353-32.31-78.767-48.27-118.264-1.04-2.563-2.07-5.126-3.12-7.689-.23-.599-.41-1.426.12-1.777.25-.124.52-.186.79-.166h41.86c1.3-.02 2.43.848 2.76 2.088v-.021Zm-170.073 92.243 18.01 18.725c1.485 1.509 1.485 3.948 0 5.457-11.532 12.049-26.984 19.572-43.57 21.226-11.842 1.633-23.89.868-35.422-2.232-25.539-6.738-44.168-28.729-46.644-55.081-1.506-13.29-1.114-26.456 3.239-39.27 8.83-25.525 27.17-39.993 53.865-44.127 10.294-1.529 20.795-1.095 30.944 1.282 17.433 3.658 32.142 15.335 39.692 31.498 7.241 14.468 8.933 29.928 8.561 46.256-.041 2.087-1.732 3.761-3.816 3.782-3.961.103-7.819 0-11.676 0h-60.817c-3.528 0-7.035-.124-10.769 0-2.145.041-3.858 1.839-3.816 3.989 0 .475.103.93.268 1.364 1.63 4.258 4.25 8.061 7.674 11.058 9.614 8.412 20.63 8.928 32.162 5.58 5.694-1.715 10.954-4.65 15.41-8.619l1.362-1.157c1.568-1.343 3.92-1.219 5.343.269Zm-18.567-37.803c2.166 0 3.92-1.756 3.92-3.927v-.372c-.805-10.168-8.17-18.622-18.134-20.792-16.504-3.617-27.54 8.267-30.573 20.317-.495 2.067.763 4.154 2.847 4.671.309.062.639.062.949 0l40.991.103Zm-124.831 37.699 18.031 18.85c1.382 1.467 1.382 3.782 0 5.25-6.003 6.489-13.244 11.698-21.311 15.294-12.439 5.395-25.993 7.709-39.506 6.738-8.066-.248-16.05-1.778-23.641-4.547-22.508-8.474-35.793-24.988-40.332-48.364-3.239-15.129-2.248-30.858 2.847-45.47 9.407-25.691 28.119-39.559 54.937-42.949 10.336-1.343 20.836-.744 30.945 1.798 17.969 4.444 30.759 15.274 38.784 31.871 7.241 15.005 8.685 31.002 7.943 47.392-.145.62-.372 1.24-.681 1.798h-86.48c-2.084 0-3.776 1.674-3.796 3.762 0 .579.123 1.137.371 1.653.309.641.64 1.261.928 1.881 5.282 11.058 16.876 17.651 29.047 16.535 9.944-.661 19.372-4.774 26.633-11.616 1.506-1.405 3.858-1.343 5.281.124Zm-64.571-37.988c6.684 1.178 47.139.827 50.399-.372-.372-8.474-3.053-15.935-10.315-20.834-7.282-5.208-16.855-5.849-24.756-1.653-9.325 4.63-13.347 13.062-15.328 22.859Z"/><path d="M1012.1 101.667c-1.67 10.066-3.26 19.759-4.89 29.597-.25 1.468-1.63 2.481-3.1 2.253h-.24c-2.56-.661-4.873-1.26-7.184-1.922-.454-.124-.908-.248-1.362-.331-8.623-1.322-16.689 4.589-18.03 13.228-.144.868-.206 1.757-.186 2.646v4.319c.021 1.468 1.217 2.646 2.682 2.667h23.31c1.36 0 2.5 1.012 2.68 2.356.75 8.577.85 17.196.33 25.773-.1 1.385-1.23 2.46-2.62 2.501-7.732.186-15.572 0-23.782 0-1.465.041-2.62 1.24-2.641 2.708v96.128c0 1.488-1.217 2.687-2.702 2.687h-38.496c-1.485 0-2.682-1.199-2.682-2.687v-96.025c0-1.405-1.093-2.563-2.496-2.687-4.373-.393-8.582 0-12.811-.207-1.444-.103-2.537-1.343-2.496-2.79v-24.926c0-1.467 1.176-2.666 2.641-2.707 4.352-.31 8.582 0 12.728-.124 1.3-.083 2.373-1.096 2.496-2.398-.062-1.033-.062-2.046 0-3.079-.123-5.126.062-10.231.557-15.336 2.971-19.635 15.163-32.78 34.411-37.4927 14.193-3.4516 27.974-1.8808 42.083 2.8316 1.26.434 2 1.7151 1.8 3.0171ZM196.643 21.0197c23.725 0 46.727 4.6503 68.368 13.8271 10.397 4.4023 20.444 9.8588 29.83 16.2246 9.304 6.3038 18.051 13.5377 26.014 21.495 7.963 7.978 15.184 16.7414 21.455 26.0628 6.334 9.4038 11.801 19.4698 16.195 29.8868 9.159 21.681 13.801 44.726 13.801 68.494 0 23.769-4.642 46.814-13.801 68.495-4.394 10.417-9.841 20.482-16.195 29.886-6.292 9.322-13.512 18.085-21.455 26.063-7.963 7.978-16.71 15.212-26.014 21.495-9.386 6.366-19.433 11.823-29.83 16.225-21.641 9.177-44.643 13.827-68.368 13.827-23.724 0-46.726-4.65-68.367-13.827-10.397-4.402-20.444-9.859-29.8306-16.225-9.304-6.304-18.051-13.537-26.0141-21.495-7.9632-7.978-15.1836-16.741-21.455-26.063-6.3334-9.404-11.8003-19.469-16.1944-29.886-9.1597-21.681-13.8014-44.726-13.8014-68.495 0-23.768 4.6417-46.813 13.8014-68.494 4.3941-10.417 9.8404-20.483 16.1944-29.8868 6.292-9.3214 13.5125-18.0848 21.455-26.0628 7.9631-7.9779 16.7101-15.2118 26.0141-21.495 9.3866-6.3658 19.4336-11.8223 29.8306-16.2246 21.641-9.1768 44.643-13.8271 68.367-13.8271Zm0-21.0197C88.0274 0 0 88.1917 0 197.01c0 108.819 88.0274 197.011 196.643 197.011 108.616 0 196.644-88.192 196.644-197.011C393.287 88.1917 305.239 0 196.643 0Z"/><path d="M136.96 121.509v-14.53c0-11.7394 7.674-21.3089 19.227-23.3344 8.726-1.5501 16.813.0827 23.229 6.7792 4.209 4.3817 6.395 9.6932 6.478 15.7702.082 5.043 0 10.107 0 15.232h26.53c0-.31.041-.64.041-.992v-13.786c.041-13.0412 10.336-23.3547 23.353-23.4787 4.497-.0414 8.85.3927 12.852 2.5628 8.211 4.4644 12.502 11.4089 12.729 20.7509.124 4.94.021 9.88.021 14.985h34.472c6.437 0 10.707 4.299 11.285 10.726.495 5.498-.908 10.521-2.724 15.543-1.877 5.208-4.559 10.086-7.983 14.427-2.703 3.43-5.735 6.634-8.851 9.714-4.043 3.968-8.293 7.73-12.522 11.533-2.31 2.066-4.373 4.319-5.694 7.151-.371.806-.701 1.757-.701 2.625-.041 21.164.041 42.328-.062 63.493-.124 25.442-18.897 48.116-43.818 52.952-3.857.723-7.756 1.116-11.676 1.137-10.955.144-21.909.062-32.863.041-26.737 0-49.141-18.271-54.381-44.499-.68-3.637-1.031-7.316-1.01-11.016-.104-20.627-.042-41.254-.062-61.86 0-.641-.145-1.282-.413-1.86-1.671-3.886-4.621-6.738-7.695-9.529-4.146-3.761-8.252-7.564-12.316-11.408-4.7447-4.485-8.9738-9.405-12.0683-15.192-3.4658-6.49-6.4158-13.227-6.4158-20.813 0-1.715.1856-3.41.557-5.084 1.1552-4.816 5.4256-8.061 10.3974-8.081h40.0427l.041.041Zm38.103 23.355h-42.167c-2.703 0-5.034 1.819-5.384 4.485-.227 1.53-.207 3.1.061 4.63.929 4.733 2.992 9.011 6.272 12.525 3.28 3.513 6.87 6.634 10.191 10.045 2.517 2.563 4.126 5.621 4.126 9.404-.021 23.107-.021 46.214 0 69.321 0 1.633.083 3.266.309 4.878 2.332 15.873 15.617 27.323 31.626 27.323h32.987c1.63 0 3.26-.082 4.889-.289 15.7-2.17 27.397-15.584 27.417-31.457 0-3.844-.041-7.709.021-11.554 0-.888-.248-1.26-1.114-1.529-8.108-2.48-15.864-6.015-23.064-10.5-16.545-10.292-29.233-24.099-37.443-41.894-3.941-8.536-6.643-17.444-7.592-26.807-.619-6.139-.743-12.318-1.114-18.622l-.021.041Zm68.698 61.964c.061-5.787-4.56-10.52-10.315-10.603-5.777-.062-10.501 4.568-10.583 10.355-.062 5.787 4.559 10.52 10.314 10.603h.021c5.756.082 10.48-4.527 10.542-10.293v-.062h.021Z"/><path d="M179.187 206.724c-.021 5.788-4.724 10.459-10.48 10.438-5.776-.021-10.438-4.733-10.418-10.52.021-5.787 4.724-10.458 10.501-10.438h.041c5.756 0 10.397 4.713 10.377 10.458v.042l-.021.02Z"/></g><defs><clipPath id="a"><path fill="#fff" d="M0 0h1153v394H0z"/></clipPath></defs></svg>

<svg width="1153" height="394" viewBox="0 0 1153 394" fill="none" xmlns="http://www.w3.org/2000/svg">
<g clip-path="url(#clip0_202_980)">
<path d="M588.484 190.769C589.268 191.637 590.32 192.195 591.475 192.381C606.04 196.866 616.953 209.039 619.841 224.024C623.39 239.484 621.079 253.931 610.579 266.414C605.813 271.933 599.892 276.315 593.208 279.229C582.997 283.962 571.877 286.442 560.613 286.504C531.278 286.731 501.942 286.504 472.607 286.504C471.781 286.504 470.977 286.401 470.213 286.339C469.223 282.742 468.976 112.911 469.925 107.021C471.472 106.504 473.102 106.359 474.711 106.607H554.321C568.411 106.256 582.336 109.645 594.694 116.445C620.564 131.306 619.615 161.378 607.691 176.755C603.771 181.902 598.655 185.994 592.775 188.681L588.484 190.769ZM515.063 249.342C515.578 249.57 516.135 249.715 516.692 249.797H552.877C576.127 249.074 576.54 213.917 553.31 212.842H518.962C517.683 212.842 516.3 212.491 515.125 213.607L515.063 249.342ZM515.063 177.851C515.847 178.016 516.631 178.12 517.415 178.182H549.556C551.701 178.14 553.826 177.83 555.889 177.293C564.203 175.639 569.917 167.93 569.092 159.477C568.68 151.003 563.419 145.402 554.528 144.017C552.898 143.769 551.247 143.665 549.597 143.686H518.467C517.373 143.686 516.135 143.335 515.063 144.554V177.851Z" fill="white"/>
<path d="M1051.48 149.804C1060.74 176.094 1069.94 202.281 1079.12 228.344C1079.64 229.79 1081.23 230.555 1082.67 230.059H1082.71C1083.5 229.79 1084.14 229.15 1084.41 228.364C1088.99 216.315 1092.53 204.058 1096.41 191.905C1100.87 177.934 1105.22 163.941 1109.66 149.825C1109.99 148.626 1111.08 147.779 1112.34 147.758H1150.24C1151.76 147.758 1153 148.998 1153 150.527V150.569C1153 150.941 1152.94 151.292 1152.79 151.623C1134.52 200.503 1116.24 249.384 1097.94 298.223C1095.4 305.23 1091.94 311.844 1087.62 317.92C1079.6 329.308 1066.99 336.584 1053.13 337.824C1037.54 339.56 1022.91 336.77 1009.91 327.386L1007.13 325.319L1005.19 323.852L1022.06 294.606C1022.85 293.263 1024.56 292.808 1025.9 293.593L1026.29 293.862C1026.77 294.255 1027.2 294.689 1027.67 295.02C1031.14 297.582 1035.25 299.153 1039.54 299.567C1046.26 300.393 1052.8 297.024 1056.04 291.072C1056.29 290.659 1056.47 290.204 1056.7 289.79C1059.07 285.409 1059.3 280.2 1057.34 275.633C1041.12 236.28 1025.03 196.866 1009.07 157.369C1008.03 154.806 1007 152.243 1005.95 149.68C1005.72 149.081 1005.54 148.254 1006.07 147.903C1006.32 147.779 1006.59 147.717 1006.86 147.737H1048.72C1050.02 147.717 1051.15 148.585 1051.48 149.825V149.804Z" fill="white"/>
<path d="M881.407 242.047L899.417 260.772C900.902 262.281 900.902 264.72 899.417 266.229C887.885 278.278 872.433 285.801 855.847 287.455C844.005 289.088 831.957 288.323 820.425 285.223C794.886 278.485 776.257 256.494 773.781 230.142C772.275 216.852 772.667 203.686 777.02 190.872C785.85 165.347 804.19 150.879 830.885 146.745C841.179 145.216 851.68 145.65 861.829 148.027C879.262 151.685 893.971 163.362 901.521 179.525C908.762 193.993 910.454 209.453 910.082 225.781C910.041 227.868 908.35 229.542 906.266 229.563C902.305 229.666 898.447 229.563 894.59 229.563H833.773C830.245 229.563 826.738 229.439 823.004 229.563C820.859 229.604 819.146 231.402 819.188 233.552C819.188 234.027 819.291 234.482 819.456 234.916C821.086 239.174 823.706 242.977 827.13 245.974C836.744 254.386 847.76 254.902 859.292 251.554C864.986 249.839 870.246 246.904 874.702 242.935L876.064 241.778C877.632 240.435 879.984 240.559 881.407 242.047ZM862.84 204.244C865.006 204.244 866.76 202.488 866.76 200.317V199.945C865.955 189.777 858.59 181.323 848.626 179.153C832.122 175.536 821.086 187.42 818.053 199.47C817.558 201.537 818.816 203.624 820.9 204.141C821.209 204.203 821.539 204.203 821.849 204.141L862.84 204.244Z" fill="white"/>
<path d="M738.009 241.943L756.04 260.793C757.422 262.26 757.422 264.575 756.04 266.043C750.037 272.532 742.796 277.741 734.729 281.337C722.29 286.732 708.736 289.046 695.223 288.075C687.157 287.827 679.173 286.297 671.582 283.528C649.074 275.054 635.789 258.54 631.25 235.164C628.011 220.035 629.002 204.306 634.097 189.694C643.504 164.003 662.216 150.135 689.034 146.745C699.37 145.402 709.87 146.001 719.979 148.543C737.948 152.987 750.738 163.817 758.763 180.414C766.004 195.419 767.448 211.416 766.706 227.806C766.561 228.426 766.334 229.046 766.025 229.604H679.545C677.461 229.604 675.769 231.278 675.749 233.366C675.749 233.945 675.872 234.503 676.12 235.019C676.429 235.66 676.76 236.28 677.048 236.9C682.33 247.958 693.924 254.551 706.095 253.435C716.039 252.774 725.467 248.661 732.728 241.819C734.234 240.414 736.586 240.476 738.009 241.943ZM673.438 203.955C680.122 205.133 720.577 204.782 723.837 203.583C723.465 195.109 720.784 187.648 713.522 182.749C706.24 177.541 696.667 176.9 688.766 181.096C679.441 185.726 675.419 194.158 673.438 203.955Z" fill="white"/>
<path d="M1012.1 101.667C1010.43 111.733 1008.84 121.426 1007.21 131.264C1006.96 132.732 1005.58 133.745 1004.11 133.517H1003.87C1001.31 132.856 998.997 132.257 996.686 131.595C996.232 131.471 995.778 131.347 995.324 131.264C986.701 129.942 978.635 135.853 977.294 144.492C977.15 145.36 977.088 146.249 977.108 147.138V151.457C977.129 152.925 978.325 154.103 979.79 154.124H1003.1C1004.46 154.124 1005.6 155.136 1005.78 156.48C1006.53 165.057 1006.63 173.676 1006.11 182.253C1006.01 183.638 1004.88 184.713 1003.49 184.754C995.758 184.94 987.918 184.754 979.708 184.754C978.243 184.795 977.088 185.994 977.067 187.462V283.59C977.067 285.078 975.85 286.277 974.365 286.277H935.869C934.384 286.277 933.187 285.078 933.187 283.59V187.565C933.187 186.16 932.094 185.002 930.691 184.878C926.318 184.485 922.109 184.878 917.88 184.671C916.436 184.568 915.343 183.328 915.384 181.881V156.955C915.384 155.488 916.56 154.289 918.025 154.248C922.377 153.938 926.607 154.248 930.753 154.124C932.053 154.041 933.126 153.028 933.249 151.726C933.187 150.693 933.187 149.68 933.249 148.647C933.126 143.521 933.311 138.416 933.806 133.311C936.777 113.676 948.969 100.531 968.217 95.8183C982.41 92.3667 996.191 93.9375 1010.3 98.6499C1011.56 99.0839 1012.3 100.365 1012.1 101.667Z" fill="white"/>
<path d="M196.643 21.0197C220.368 21.0197 243.37 25.67 265.011 34.8468C275.408 39.2491 285.455 44.7056 294.841 51.0714C304.145 57.3752 312.892 64.6091 320.855 72.5664C328.818 80.5444 336.039 89.3078 342.31 98.6292C348.644 108.033 354.111 118.099 358.505 128.516C367.664 150.197 372.306 173.242 372.306 197.01C372.306 220.779 367.664 243.824 358.505 265.505C354.111 275.922 348.664 285.987 342.31 295.391C336.018 304.713 328.798 313.476 320.855 321.454C312.892 329.432 304.145 336.666 294.841 342.949C285.455 349.315 275.408 354.772 265.011 359.174C243.37 368.351 220.368 373.001 196.643 373.001C172.919 373.001 149.917 368.351 128.276 359.174C117.879 354.772 107.832 349.315 98.4454 342.949C89.1414 336.645 80.3944 329.412 72.4313 321.454C64.4681 313.476 57.2477 304.713 50.9763 295.391C44.6429 285.987 39.176 275.922 34.7819 265.505C25.6222 243.824 20.9805 220.779 20.9805 197.01C20.9805 173.242 25.6222 150.197 34.7819 128.516C39.176 118.099 44.6223 108.033 50.9763 98.6292C57.2683 89.3078 64.4888 80.5444 72.4313 72.5664C80.3944 64.5885 89.1414 57.3546 98.4454 51.0714C107.832 44.7056 117.879 39.2491 128.276 34.8468C149.917 25.67 172.919 21.0197 196.643 21.0197ZM196.643 0C88.0274 0 0 88.1917 0 197.01C0 305.829 88.0274 394.021 196.643 394.021C305.259 394.021 393.287 305.829 393.287 197.01C393.287 88.1917 305.239 0 196.643 0Z" fill="white"/>
<path d="M136.96 121.509V106.979C136.96 95.2396 144.634 85.6701 156.187 83.6446C164.913 82.0945 173 83.7273 179.416 90.4238C183.625 94.8055 185.811 100.117 185.894 106.194C185.976 111.237 185.894 116.301 185.894 121.426H212.424C212.424 121.116 212.465 120.786 212.465 120.434V106.648C212.506 93.6068 222.801 83.2933 235.818 83.1693C240.315 83.1279 244.668 83.562 248.67 85.7321C256.881 90.1965 261.172 97.141 261.399 106.483C261.523 111.423 261.42 116.363 261.42 121.468H295.892C302.329 121.468 306.599 125.767 307.177 132.194C307.672 137.692 306.269 142.715 304.453 147.737C302.576 152.945 299.894 157.823 296.47 162.164C293.767 165.594 290.735 168.798 287.619 171.878C283.576 175.846 279.326 179.608 275.097 183.411C272.787 185.477 270.724 187.73 269.403 190.562C269.032 191.368 268.702 192.319 268.702 193.187C268.661 214.351 268.743 235.515 268.64 256.68C268.516 282.122 249.743 304.796 224.822 309.632C220.965 310.355 217.066 310.748 213.146 310.769C202.191 310.913 191.237 310.831 180.283 310.81C153.546 310.81 131.142 292.539 125.902 266.311C125.222 262.674 124.871 258.995 124.892 255.295C124.788 234.668 124.85 214.041 124.83 193.435C124.83 192.794 124.685 192.153 124.417 191.575C122.746 187.689 119.796 184.837 116.722 182.046C112.576 178.285 108.47 174.482 104.406 170.638C99.6613 166.153 95.4322 161.233 92.3377 155.446C88.8719 148.956 85.9219 142.219 85.9219 134.633C85.9219 132.918 86.1075 131.223 86.4789 129.549C87.6341 124.733 91.9045 121.488 96.8763 121.468C109.77 121.468 122.684 121.468 135.578 121.468H136.919L136.96 121.509ZM175.063 144.864H132.896C130.193 144.864 127.862 146.683 127.512 149.349C127.285 150.879 127.305 152.449 127.573 153.979C128.502 158.712 130.565 162.99 133.845 166.504C137.125 170.017 140.715 173.138 144.036 176.549C146.553 179.112 148.162 182.17 148.162 185.953C148.141 209.06 148.141 232.167 148.162 255.274C148.162 256.907 148.245 258.54 148.471 260.152C150.803 276.025 164.088 287.475 180.097 287.475C191.093 287.475 202.088 287.475 213.084 287.475C214.714 287.475 216.344 287.393 217.973 287.186C233.673 285.016 245.37 271.602 245.39 255.729C245.39 251.885 245.349 248.02 245.411 244.175C245.411 243.287 245.163 242.915 244.297 242.646C236.189 240.166 228.433 236.631 221.233 232.146C204.688 221.854 192 208.047 183.79 190.252C179.849 181.716 177.147 172.808 176.198 163.445C175.579 157.306 175.455 151.127 175.084 144.823L175.063 144.864ZM243.761 206.828C243.822 201.041 239.201 196.308 233.446 196.225C227.669 196.163 222.945 200.793 222.863 206.58C222.801 212.367 227.422 217.1 233.177 217.183H233.198C238.954 217.265 243.678 212.656 243.74 206.89V206.828H243.761Z" fill="white"/>
<path d="M179.187 206.724C179.166 212.512 174.463 217.183 168.707 217.162C162.931 217.141 158.269 212.429 158.289 206.642C158.31 200.855 163.013 196.184 168.79 196.204H168.831C174.587 196.204 179.228 200.917 179.208 206.662V206.704L179.187 206.724Z" fill="white"/>
</g>
<defs>
<clipPath id="clip0_202_980">
<rect width="1153" height="394" fill="white"/>
</clipPath>
</defs>
</svg>
